icons/civet.svg

<svg width="16" height="16" viewBox="0 0 16 16" fill="none" xmlns="http://www.w3.org/2000/svg">
<path fill-rule="evenodd" clip-rule="evenodd" d="M8 6C8 4.86863 8.5 3 9 2L10 3.5H12.5L13.5 2C13.5635 2.19046 13.627 2.3777 13.6894 2.56192L13.6895 2.56215C14.119 3.82866 14.5 4.95243 14.5 6C14.5 6.72422 14.0338 7.21533 13.439 7.5296C13.4591 7.52015 13.4794 7.51029 13.5 7.5C13.5 8.5 13.5 11.5 11.5 11.5L4 11.5C4 12.5 5.43845 12.5 7.5 12.5C11.5 12.5 13 13 13 14C13 14.8165 12.3333 14.633 11 14.266C10.7003 14.1835 10.367 14.0918 10 14C9 13.75 7.75 13.75 6.5625 13.75C5.375 13.75 4.25 13.75 3.5 13.5C2.43934 13.1464 2.00001 12.5 2.00001 10.5C2.00001 8.5 2.5 7 4.5 6.5C5.64286 6.21429 6.78572 6.58163 7.92857 6.94898L7.92859 6.94899C8.16646 7.02544 8.40432 7.1019 8.64219 7.17247C8.25718 6.87779 8 6.49288 8 6ZM13.5 5C13.5 5.33333 13.5 6.5 11.5 6.5C11.5 4.9 13.1667 4.83333 13.5 5ZM9 5C9 5.33333 9 6.5 11 6.5C11 4.9 9.33333 4.83333 9 5Z" fill="#33A06F"/>
</svg>

<svg xmlns="http://www.w3.org/2000/svg" width="16" height="16" fill="none"><path fill="#33A06F" fill-rule="evenodd" d="M8 6c0-1.131.5-3 1-4l1 1.5h2.5l1-1.5c.063.19.127.378.19.562.429 1.267.81 2.39.81 3.438 0 .724-.466 1.215-1.061 1.53l.061-.03c0 1 0 4-2 4H4c0 1 1.438 1 3.5 1 4 0 5.5.5 5.5 1.5 0 .816-.667.633-2 .266-.3-.082-.633-.174-1-.266-1-.25-2.25-.25-3.438-.25-1.187 0-2.312 0-3.062-.25-1.06-.354-1.5-1-1.5-3s.5-3.5 2.5-4c1.143-.286 2.286.082 3.429.449.237.076.475.153.713.223C8.257 6.878 8 6.492 8 6Zm5.5-1c0 .333 0 1.5-2 1.5 0-1.6 1.667-1.667 2-1.5ZM9 5c0 .333 0 1.5 2 1.5C11 4.9 9.333 4.833 9 5Z" clip-rule="evenodd"/></svg>
